X:1
T:Title
%%score 1 2 3
L:1/8
M:2/2
K:C
V:1 treble nm="Part_1"
V:2 treble-8 nm="Part_2"
V:3 treble-8 nm="Part_3"
V:1
 z8 | C8 | F8- | F8 | G4 A4- | A4 F4- | F4 E4 | F8 | z4 G4- | G4 A4- | A4 _B4- | B4 A4- | %12
 A2 G2 _B2 A2 | G2 F2 F4- | F4 E4 | F8 | A8 | c8 | _B8 | A4 G4- | G4 F4- | F4 E4 | F8 | C8 | %24
 F4 E4 | D6 C2 | C8 | B,4 C4- | C4 F4- | F4 E4- | E4 F4 | G4 A4- | A2 G2 _B2 A2 | G2 F2 E4- | %34
 E2 E2 D4 | F8 || A8 | c8 | c8 | _B4 A4- | A4 G4- | G4 ^F4 | G8 | z4 A4 | F4 G4 | A4 _B4- | %46
 B2 A2 A4- | A2 G2 G2 F2 | A8 | z4 A4 | c4 c4 | _B4 A4 | G4 z4 | A4 F4 | _B4 A4 | G8 | F4 E4 | D8 | %58
 C8 | z4 G4- | G2 F2 A2 _B2 | c4 _B4 | A4 G4- | G2 F2 F4- | F2 E2 E2 D2 | F8 || C8 | D8 | F8 | %69
 z4 F4 | E4 D4 | E2 F2 G4- | G2 ^F2 F2 E2 | G8 | z4 E4- | E4 F4- | F4 D4 | E4 D4- | D4 C4- | %79
 C4 B,4 | C8 | z4 C4- | C4 D4- | D2 E2 F4- | F2 E2 G4- | G2 F2 F4- | F2 E2 E2 D2 | F8 | E4 F4 | %89
 G8 | z4 G4 | A4 _B4 | A4 G4 | F6 E2 | C4 z4 | D4 C4- | C2 D2 E2 F2 | G4 A4- | A2 G2 F4- | %99
 F2 E2 E2 D2 | F8 || F8 | c8- | c8 | B8 | A6 G2 | A2 (B2 c4- | c4) B4 | c8 | z8 | d8 | f8 | c8 | %113
 d4 e4- | e4 c4- | c4 B4 | c8 | z4 d4 | e8 | f8 | e4 d4- | d2 c2 c4- | c4 B4 | c8 | z4 A4- | %125
 A4 c4- | c4 d4- | d4 c4 | _B4 A4- | A2 G2 _B2 A2 | G2 F2 F4- | F4 E4 | F8 | z4 A4- | A4 c4- | %135
 c4 _B4 | A4 G4- | G2 F2 F4- | F4 E4 | F8 || A8 | G8 | A8- | A4 _B4- | B4 A4- | A2 G2 G4- | G4 F4 | %147
 G8 | z4 A4- | A4 F4- | F4 E4 | D4 C4 | F6 G2 | A4 G4- | G4 F4- | F4 E4 | F8 | z4 A4 | c4 c4 | %159
 _B4 A4 | G8 | A8 | F8 | G4 A4- | A4 _B4- | B4 A4- | A4 G4 | A8 | z4 c4 | d4 c4 | _B8 | A8 | %172
 G4 F4- | F2 E2 C4 | F2 G2 A2 _B2 | A4 G4- | G4 F4- | F4 E4 | F8 |] %179
V:2
 C8 | F8- | F8 | A8 | B4 A4 | c4 F4 | G8 | F8 | _B8 | c8 | d8 | _e4 f4 | c4 _B4 | c4 A4 | G8 | F8 | %16
 f8 | e4 c4 | d4 e4 | f4 e4 | c4 F4 | G8 | F8 | c6 _B2 | A4 G4 | F8 | C4 D4- | D4 C4- | C4 z4 | %29
 z4 c4- | c4 _B4- | B4 A4 | c4 _B4- | B4 A4 | G8 | F8 || f8 | f4 e4 | c8 | d8 | c4 G4 | A8 | G8 | %43
 c8 | d4 c4 | A4 G4 | c4 A4 | _B8 | F8- | F8 | f4 e4 | d4 c4 | e8 | f4 d4- | d4 c4 | G6 A2 | %56
 _B4 c4- | c4 B4 | c4 F4- | F4 _B4 | A4 c4- | c4 d4- | d2 c2 _B4- | B4 A4 | G8 | F8 || F8- | F8 | %68
 D8 | C4 F4 | G4 B4 | c6 B2 | A8 | G8 | E8 | G4 F4 | _B8 | G8 | F4 E4 | D8 | C8- | C8 | F8 | %83
 G6 A2 | _B6 G2 | _B4 A4 | G8 | F8 | c4 d4 | e4 c4- | c4 _B4 | A4 G4 | c8 | A4 _B4 | c4 F4 | %95
 D4 E4 | F4 G4 | _B4 c4- | c4 F4 | G8 | F8 || F8 | f8 | e4 c4 | e4 d4- | d4 c4 | f4 c4 | d8 | c8 | %109
 e4 f4 | g8 | f4 d4 | e4 f4- | f4 c4 | e8 | d8 | c8 | f8 | e4 c4 | f4 a4 | g4 f4- | f4 c4 | d8 | %123
 c8- | c8 | d4 e4 | f8 | g4 c4 | d4 c4 | A4 _B4- | B4 A4 | G8 | F8 | c8- | c8 | A4 _B4 | c8 | %137
 _B4 A4 | G8 | F8 || F8 | B8 | A8 | c8 | d8 | c4 G4 | A8 | G8 | d8 | c4 _B4 | A8 | _B4 A4 | %152
 F4 _B4 | A4 c4- | c4 A4 | G8 | F8 | c4 c4- | c4 A4 | G4 A4 | _B4 c4- | c4 A4- | A4 _B4- | B4 c4 | %164
 d8 | z4 c4 | B8 | A8 | F8 | z4 c4- | c4 d4- | d4 c4- | c4 A4 | _B4 c4- | c4 F4 | c4 _B4- | B4 A4 | %177
 G8 | F8 |] %179
V:3
 c8 | A8- | A8 | F8 | E4 F4 | C4 c4 | C8 | c8 | G8 | z4 A4 | F4 G4- | G4 F4 | A4 z4 | A4 F4 | C8 | %15
 c8 | F8 | A8 | _B4 G4 | F4 c4 | C4 D4 | C8 | c8 | C8 | D4 E4 | F4 D4 | G6 F2 | F2 E2 G4- | %28
 G4 D4- | D4 C4- | C4 D4 | _E4 F4 | C4 G4 | _E4 C4 | C8 | c8 || F8 | A8- | A8 | G8 | z4 E4 | D8 | %42
 d8 | c4 A4 | F4 C4 | c4 d4- | d2 c2 e4- | e2 d2 d2 c2 | d8 | f8 | F4 c4 | G4 A4 | c8 | F8 | %54
 G4 A4 | _B8 | z4 A4 | F4 z4 | C4 c4- | c4 d4 | c4 F4 | A4 G4 | A4 E4 | z4 F4 | C8 | c8 || A8 | %67
 D8 | F8 | c8 | B4 G4 | C4 G4 | D8 | d8 | c4 B4- | B4 c4 | d4 G4 | _B6 A2 | A4 G4 | F6 E2 | G8 | %81
 E4 G4 | A4 D4 | E4 D4 | d4 G4 | d4 c4 | B6 A2 | c8 | C4 F4 | E4 C4- | C4 d4 | c4 d4 | A4 z4 | D8 | %94
 C4 c4 | _B6 G2 | A4 _B4 | G4 F4- | F2 C2 D4 | C8 | c8 || c8 | F8 | A8 | G8 | z4 A4 | F4 A4 | G8 | %108
 g8 | G4 A4 | B4 G4 | d4 f4 | c4 A4 | F4 A4 | c6 B2 | G8 | g8 | a6 f2 | g8 | d8 | G4 _B4- | B4 A4 | %122
 G8 | g8 | e6 d2 | f4 c4 | A4 _B4 | G4 g4 | f4 e4 | c4 f4- | f2 ed c4- | c2 B2 A2 G2 | c8 | F8 | %134
 A6 G2 | c4 G4 | A4 F4 | G4 F4 | C8 | c8 || f8 | d8 | c4 A4 | F8 | D8 | A4 d4- | d2 c2 c2 B2 | d8 | %148
 D8 | A4 D4- | D4 z4 | G4 F4- | F4 D4- | D4 E4- | E4 F4 | C8 | c8 | F8- | F8 | z4 F4 | E8 | C4 F4 | %162
 c4 d4- | d4 z4 | D8 | d4 e4- | e2 d2 d2 c2 | e8 | f8 | d4 e4- | e4 f4- | f4 e4- | e4 c4 | z4 C4 | %174
 c8 | F4 G4- | G4 F4 | C8 | c8 |] %179

